X:6012
T:Ships are Sailing
O:england
C:Trad
R:Reel
M:C|
K:Em
L:1/8
Beed B^cdB|AD (3FED AD (3FED|EDEF GFGA|1 Beef gfed :|2 Bee^d e2 ef|
gfga bgeg|fefg afdf|gfga bgeg|fe^df e2 ef|
gfga bgeg|fefg afdf|g3 e f3 d|edef gfed ||


